X: 24163
T: Loosecaune, The
R: jig
M: 6/8
K: Gmajor
|:DB,D GBG|AEC CB,C|A^GA F=GA|FEF DEC|
B,2 D GBG|AEC CB,C|cBc ABG|1 FED G2E:|2 FED G2 A||
|:B3 dBG|BdG BAG|e^de c=de|cBc ABc|
dBG edc|(3Bcd B cBA|GFE DFA|FED G2 A:|
|:B^AB GDB,|DGB, DGD|CEG cBA|FAD FED|
[1 B^AB GDB,|DGB, DGD|CEG cBA|FED G2 A:|
[2B^AB GDB,|CEG cBA|FEF DFA|FED G3||

